findly-builder/apps/searchassist/src/assets/icons/signout.svg

<svg width="10" height="11" viewBox="0 0 10 11" fill="none" xmlns="http://www.w3.org/2000/svg">
<path d="M1.24055 0.625C0.627578 0.625 0.125 1.13184 0.125 1.75V9.25C0.125 9.86816 0.627578 10.375 1.24055 10.375H8.67754C9.29051 10.375 9.79309 9.86816 9.79309 9.25V8.5C9.79309 8.29289 9.62661 8.125 9.42124 8.125C9.21587 8.125 9.04939 8.29289 9.04939 8.5V9.25C9.04939 9.46094 8.8867 9.625 8.67754 9.625H1.24055C1.03138 9.625 0.868699 9.46094 0.868699 9.25V1.75C0.868699 1.53906 1.03138 1.375 1.24055 1.375H8.67754C8.8867 1.375 9.04939 1.53906 9.04939 1.75V2.5C9.04939 2.70711 9.21587 2.875 9.42124 2.875C9.62661 2.875 9.79309 2.70711 9.79309 2.5V1.75C9.79309 1.13184 9.29051 0.625 8.67754 0.625H1.24055ZM7.623 3.15625C7.47837 3.0104 7.24407 3.00974 7.09864 3.15479C6.95207 3.30098 6.95141 3.53952 7.09718 3.68653L8.52357 5.125H3.47165C3.26628 5.125 3.0998 5.29289 3.0998 5.5C3.0998 5.70711 3.26628 5.875 3.47165 5.875H8.52357L7.09745 7.31074C6.95133 7.45783 6.95123 7.69657 7.09722 7.84379C7.24318 7.99098 7.47984 7.99092 7.62571 7.84364L9.82407 5.62417C9.892 5.55558 9.89197 5.44445 9.824 5.3759L7.623 3.15625Z" fill="#DD3646"/>
</svg>

<svg width="10" height="11" fill="none" xmlns="http://www.w3.org/2000/svg"><path d="M1.24.625C.629.625.126 1.132.126 1.75v7.5c0 .618.503 1.125 1.116 1.125h7.437c.613 0 1.115-.507 1.115-1.125V8.5a.373.373 0 0 0-.372-.375.373.373 0 0 0-.372.375v.75c0 .21-.162.375-.371.375H1.24a.369.369 0 0 1-.372-.375v-7.5c0-.21.162-.375.372-.375h7.437c.209 0 .371.164.371.375v.75c0 .207.167.375.372.375a.373.373 0 0 0 .372-.375v-.75c0-.618-.502-1.125-1.115-1.125H1.24Zm6.383 2.531a.37.37 0 0 0-.524-.001.377.377 0 0 0-.002.532l1.427 1.438H3.472A.373.373 0 0 0 3.1 5.5c0 .207.166.375.372.375h5.052L7.097 7.311a.379.379 0 0 0 0 .533.371.371 0 0 0 .529 0l2.198-2.22a.177.177 0 0 0 0-.248l-2.201-2.22Z" fill="#DD3646"/></svg>
